X:18005
T:Red Wing
T:Union Maid; Indian Maid
R:Polka
C:Kerry Mills, 1907
O:USA
Z:Paul Hardy's Session Tunebook 2022 (see www.paulhardy.net). Creative Commons cc by-nc-sa licenced.
M:2/2
L:1/8
Q:1/2=55
K:G
D2|:"G"G>D GB d3 B|"C"ce ge "G"d3 B|"Am"cc/B/ "D7"Ac "G"BB/A/ "Em"GB|1"A7"AG FG "D7"AF ED:|2"A7"AG "D7"FA "G"G2||
|:gf|"C"e2 c2 eg fe|"G"d2 B2- Bd ed|"D7"d2 A2- Ad ed|1"G"d2 B2- Bg:|2"G"G4-G2|]

